svg/color/spyon.svg

<svg width="40" height="40" viewBox="0 0 40 40" fill="none" xmlns="http://www.w3.org/2000/svg">
<g clip-path="url(#clip0_878_634)">
<path d="M20 0C31.0457 0 40 8.9543 40 20C40 31.0457 31.0457 40 20 40C8.95431 40 7.90517e-06 31.0457 0 20C6.58765e-07 8.95431 8.95431 1.97595e-06 20 0Z" fill="#E9D4FC"/>
<path d="M26 6C30.4183 6 34 9.58172 34 14V26C34 30.4183 30.4183 34 26 34H14C9.58172 34 6 30.4183 6 26V14C6 9.58172 9.58172 6 14 6H26Z" fill="#450E78"/>
<path fill-rule="evenodd" clip-rule="evenodd" d="M12.9921 19.9472C13.7126 20.6389 14.4043 21.2193 14.4043 22.4363C14.4043 23.7633 13.7401 24.6764 12.2165 24.6764C11.1358 24.6764 10.1114 24.2336 10.0275 22.5188L10 21.8834L11.4685 21.7996L11.496 22.1874C11.5511 22.9616 11.8288 23.2105 12.2165 23.2105C12.548 23.2105 12.7144 23.0166 12.7144 22.6026C12.7144 22.0485 12.1052 21.5507 11.496 21.0529C10.6092 20.2787 10.1114 19.6145 10.1114 18.4538C10.1114 17.2643 10.803 16.3237 12.2441 16.3237C13.3523 16.3237 14.2104 16.8215 14.2942 18.4538L14.3217 18.8953L12.9082 18.9791V18.5914C12.9082 18.0936 12.7419 17.7346 12.2991 17.7346C12.0502 17.7346 11.8013 17.8997 11.8013 18.315C11.7725 18.9241 12.1052 19.1442 12.9921 19.9472ZM28.1712 24.5663L27.4507 21.3018H27.3132V24.5663H25.4844V16.4901H27.8385C29.1131 16.4901 29.9437 17.2918 29.9437 18.8128C29.9437 19.7258 29.6122 20.4725 29.0581 20.8878L30 24.5663H28.1712ZM27.3118 20.2512H27.4782C27.7835 20.2512 28.1149 20.0848 28.1149 19.0617C28.1149 18.011 27.8385 17.8447 27.5332 17.8447H27.3118V20.2512ZM20.0819 16.4901H22.4085C24.0434 16.4901 24.8739 17.7896 24.8739 20.5276C24.8739 23.2655 24.0434 24.5663 22.4085 24.5663H20.0819V16.4901ZM22.1871 17.8447H21.9107V23.238H22.1871C22.7137 23.238 23.0189 22.7677 23.0189 20.5276C23.0189 18.2874 22.7137 17.8447 22.1871 17.8447ZM16.8697 21.7996V24.5663H15.0409V16.4901H17.4225C18.7247 16.4901 19.5566 17.2643 19.5566 19.1455C19.5566 20.9704 18.7247 21.7996 17.285 21.7996H16.8697ZM17.1461 17.8447H16.8972V20.4725H17.1461C17.4239 20.4725 17.7278 20.2787 17.7278 19.1455C17.7278 18.0385 17.4239 17.8447 17.1461 17.8447Z" fill="white"/>
</g>
<defs>
<clipPath id="clip0_878_634">
<rect width="40" height="40" fill="white"/>
</clipPath>
</defs>
</svg>

<svg xmlns="http://www.w3.org/2000/svg" width="40" height="40" fill="none" viewBox="0 0 40 40"><g clip-path="url(#spyon_svg-a)"><path fill="#E9D4FC" d="M20 0c11.046 0 20 8.954 20 20s-8.954 20-20 20S0 31.046 0 20 8.954 0 20 0"/><path fill="#450E78" d="M26 6a8 8 0 0 1 8 8v12a8 8 0 0 1-8 8H14a8 8 0 0 1-8-8V14a8 8 0 0 1 8-8z"/><path fill="#fff" fill-rule="evenodd" d="M12.992 19.947c.72.692 1.412 1.272 1.412 2.49 0 1.326-.664 2.24-2.187 2.24-1.081 0-2.106-.443-2.19-2.158L10 21.883l1.469-.083.027.387c.055.775.333 1.023.72 1.023.332 0 .498-.193.498-.607 0-.555-.609-1.052-1.218-1.55-.887-.774-1.385-1.439-1.385-2.6 0-1.189.692-2.13 2.133-2.13 1.108 0 1.966.498 2.05 2.13l.028.442-1.414.084v-.388c0-.497-.166-.856-.609-.856-.249 0-.498.165-.498.58-.028.61.304.83 1.191 1.632m15.18 4.62-.721-3.265h-.138v3.264h-1.829V16.49h2.354c1.275 0 2.106.802 2.106 2.323 0 .913-.332 1.66-.886 2.075L30 24.566zm-.86-4.316h.166c.305 0 .637-.166.637-1.19 0-1.05-.276-1.216-.582-1.216h-.221zm-7.23-3.76h2.326c1.635 0 2.466 1.299 2.466 4.037s-.83 4.038-2.465 4.038h-2.327zm2.105 1.354h-.276v5.393h.276c.527 0 .832-.47.832-2.71s-.305-2.683-.832-2.683M16.87 21.8v2.766h-1.83V16.49h2.383c1.302 0 2.134.774 2.134 2.656 0 1.824-.832 2.654-2.272 2.654zm.276-3.955h-.249v2.628h.25c.277 0 .58-.194.58-1.328 0-1.107-.303-1.3-.58-1.3" clip-rule="evenodd"/></g><defs><clipPath id="spyon_svg-a"><path fill="#fff" d="M0 0h40v40H0z"/></clipPath></defs></svg>
